X:1
T:The Hog-Eye Man
M:2/4
L:1/8
K:Bb
B/2-c/2| dc c B/2c/2| dc cB/2-c/2| dc B3/2 G/2| Bc G F/2F/2| B B3|\
 FF F/2G/2 F/2E/2| F F3| G/2G/2 G/2G/2 G F/2F/2| Bc d3/2 d/2| d3 G|\
 G2 G2| G2||
